X:1
T:A minor Jeremiah Ingalls, 1796
T:Isaac Watts, 1719 (Psalm 50, Part 6)            10 10. 10 10. 10 10.
T:Pennsylvania
T:Transcribed from  Village Harmony, 1803.
%%score [ 1 2 3 4 ]
L:1/8
Q:1/4=140
M:4/4
K:C
V:1 treble nm="Tr." snm="Tr."
V:2 treble nm="C." snm="C."
V:3 treble-8 nm="T." snm="T."
V:4 bass nm="B." snm="B."
V:1
 A4 AB cd | e2 B2 c2 dc | B2 A2 ^G4 | ^G4 A2 A2 | A2 B2 c2 A2 | ^G6 G2 | A6 z2 | z8 | z8 | %9
w: 1.~The God * of *|glo- ry sends his *|sum- mons forth,|Calls the south|na- tions and a-|wakes the|north;|||
w: 2.~Sin- ners, * a- *|wake be- times, ye *|fools, be wise;|A- wake be-|fore this dread- ful|mor- ning|rise;|||
 z4 z2 c2 | e2 B2 c2 A2 | B6 B2 | (c3 B A2 B2 | c2 A2) ^G4 | A6 G2 | A2 A2 c2 c2 | e2 c2 A2 c2 | %17
w: From|east to west the|sove- reign|or- * * *|* * ders|spread, Through|dis- tant worlds and|re- gions of the|
w: Change|your vain thoughts, your|croo- ked|works~ _ _ _|_ _ a-|mend, Fly|to the Sa- vior,|make the Judge your|
 B6 c2 | A2 A2 A2 c2 | (BcBA B2) B2 | c2 c2 ABcd | e8 | z4 e4 | c2 c2 A2 A2 | B2 B2 B2 B2 | %25
w: dead: The|trum- pet sounds; hell|trem- * * * * bles,|heav'n re- joi- * * *|ces;|The|trum- pet sounds, hell|trem- bles, heav'n re-|
w: friend: Then|join the saints, wake|eve- * * * * ry|cheer- ful pas- * * *|sion;|Then|join the saints, wake|eve- ry cheer- ful|
 e2 ee e2 d2 | c3 d e2 c2 | c2 c2 B2 B2 | z4 c4- | c4 e2 c2 | A2 c2 d2 B2 | (G2 AB c2 B2 | %32
w: joi- ces; The trum- pet|sounds; hell trem- bles,|heav'n re- joi- ces;|Lift~|_ up your|heads. ye saints, with|cheer- * * * *|
w: pas- sion; Then join the|saints, wake eve- ry|cheer- ful pas- sion;|When~|_ Christ re-|turns, he comes for|your~ _ _ _ _|
 cB) A2 ^G4 | A8 |] %34
w: * * ful voi-|ces.|
w: _ _ sal- va-|tion.|
V:2
 E4 E2 E2 | G2 G2 E2 F2 | G2 A2 E4 | E4 C2 C2 | E2 E2 E2 F2 | E6 E2 | E6 z2 | z8 | z4 z2 E2 | %9
w: ||||||||From|
w: ||||||||Change|
 G2 E2 G2 G2 | E2 E2 A2 A2 | G2 G2 G2 G2 | A2 A2 E2 F2 | E4 E4 | E6 E2 | E2 E2 E2 A2 | %16
w: east to west the|sove- reign or- ders|spread, From east to|west the sove- reign|or- ders|spread, Through|dis- tant worlds and|
w: your vain thoughts, your|croo- ked ways a-|mend, Change your vain|thoughts, your croo- ked|ways a-|mend, Fly|to the Sa- vior,|
 G2 G2 G2 G2 | G6 z2 | z4 z2 A2 | E2 E2 E2 G2 | (ABAG A2) A2 | G2 G2 GAGF | E8 | z4 E4 | %24
w: re- gions of the|dead:|The|trum- pet sounds; hell|trem- * * * * bles;|heav'n re- joi- * * *|ces;|The|
w: make the Judge your|friend:|Then|join the saints, wake|eve- * * * * ry|cheer- ful pas- * * *|sion;|Then|
 G2 G2 G2 G2 | A2 A2 A2 D2 | (C3 D E2) G2 | A2 A2 G2 G2 | z4 A4- | A4 A2 A2 | A2 A2 A2 BA | %31
w: trum- pet sounds, The|trum- pet sounds; hell|trem- * * bles,|heav'n re- joi- ces;|Lift~|_ up your||
w: join the saints, Then|join the saints, wake|eve- * * ry|cheer- ful pas- sion;|When~|_ Christ re~–-||
 (G4 A2 GF | E2) F2 E4 | E8 |] %34
w: |||
w: |||
V:3
 A4 c2 A2 | B2 e2 c2 A2 | G2 A2 B4 | B4 c2 c2 | e2 g2 ed c2 | B6 B2 | A6 z2 | z4 z2 B2 | %8
w: 1.~The God of|glo- ry sends his|sum- mons forth,|Calls the south|na- tions and * a-|wakes the|north;|From|
w: 2.~Sin- ners, a-|wake be- times; ye|fools, be wise;|A- wake be-|fore this dread- * ful|mor- ning|rise;|Change|
 e2 B2 c2 A2 | G2 A2 B2 c2 | B4 e4 | d2 d2 d2 d2 | (c3 d e2) d2 | c4 B4 | A6 B2 | c2 c2 e2 e2 | %16
w: east to west the|sove- reign or- ders|spread, From|east to west the|sove- * * reign|or- ders|spread, Through|dis- tant worlds and|
w: your vain thoughts, your|croo- ked ways a-|mend, Change|your vain thoughts, your|croo- * * ked|ways a-|ment, Fly|to the Sa- vior,|
 g2 e2 c2 e2 | d6 z2 | z8 | z4 z2 c2 | A2 A2 A2 c2 | (BcBA B2) B2 | c2 c2 ABcd | e8 | z4 e4 | %25
w: re- gions of the|dead:||The|trum- pet sounds; hell|trem- * * * * bles,|heav'n re- joi- * * *|ces;|The|
w: make the Judge your|friend:||Then|join the saints, wake|eve- * * * * ry|cheer- ful pas- * * *|sion:|Then|
 c2 c2 c2 d2 | (e3 d c2) B2 | cd ef g2 e2 | z4 e4- | e4 a2 ed | c2 A2 f2 d2 | (e3 d c2 d2 | %32
w: trum- pet sounds; hell|trem- * * bles,|heav'n * re- * joi- ces;|Lift~|_ up your *|heads, ye saints, with|cheer- * * *|
w: join the saints, wake|eve- * * ry|cheer- * ful * pas- sion;|When~|_ Christ re- *|turns, he comes for|your~ _ _ _|
 ed) c2 B4 | A8 |] %34
w: * * ful voi-|ces.|
w: _ _ sal- va-|tion.|
V:4
 A,4 A,2 A,2 | E,2 E,2 C,2 D,2 | E,2 F,2 E,4 | E,4 A,2 A,2 | A,2 G,2 A,2 A,2 | E,6 E,2 | A,,6 E,2 | %7
w: ||||||* From|
w: ||||||* Change|
 A,2 E,2 G,2 G,2 | A,2 G,2 A,2 A,2 | E,8- | E,4 C,4 | G,2 G,2 G,2 G,2 | (A,3 B, C2) B,2 | A,4 E,4 | %14
w: east to west the|sove- reign or- ders|spread,~|_ From|east to west the|sove- * * reign|or- ders|
w: your vain thoughts, your|croo- ked ways a-|mend,~|_ Change|your vain thoughts, your|croo- * * ked|ways a-|
 A,,6 E,2 | A,2 A,2 A,2 A,2 | C2 C2 C,2 C,2 | G,6 z2 | z8 | z8 | z4 z2 A,2 | E,2 E,2 E,2 G,2 | %22
w: spread, Through|dis- tant worlds and|re- gions of the|dead:|||The|trum- pet sounds; hell|
w: mend, Fly|to the Sa- vior,|make the Judge your|friend:|||Then|join the saints, wake|
 (A,B,A,G, A,2) A,2 | C2 C2 (C2 A,2) | E,4 E,4 | A,2 A,2 A,2 G,2 | (C3 B, A,2) G,2 | %27
w: trem- * * * * bles,|heav'n re- joi- *|ces; The|trum- pet sounds, hell|trem- * * bles,|
w: eve- * * * * ry|cheer- ful pas- *|sion; Then|join the saints, wake|eve- * * ry|
 A,2 A,2 E,2 E,2 | z4 A,4- | A,4 A,2 A,2 | A,2 A,2 D2 A,2 | %31
w: heav'n re- joi- ces;|Lift~|_ up your||
w: cheer- ful pas- sion:|When~|_ Christ re~–||
"^_____________________________________\nEdited by  B. C. Johnston, 2017\n   1.   Measure 10, Treble: note changed from B to C." (C3 B, A,2 G,2 | %32
w: |
w: |
 A,2) A,2 E,4 | A,,8 |] %34
w: ||
w: ||

